X:1
T:Title
%%score { 1 | 2 }
L:1/8
M:4/4
K:Ab
V:1 treble nm="Grand Piano"
V:2 bass 
V:1
 z4 z2[Q:1/4=100] [CE][CF] | [CA]2 [CA]2 [DF][CE][A,C][B,D] | [CE]2 [DF]2 [CE]2 [EA]B | %3
 c3 c fe c2 | B6 [CA][DB] | [Ec]2 [Ec]2 [DB][CA][DF][DA] | [CA]2 [CA]2 [CE]2 [EA][FB] | %7
 c3 A BB B2 | [CA]6 cd | e2 ec [EA]2 [DF]2 | [CE]6 [EA]B | c2 cc B2 A2 |[M:3/4] [GB]6 |[M:1/4] cd | %14
[M:4/4] e2 e2 c2 BA |[M:9/8] [FB]2 [FA]- [FA] [FA]2- [FA]FF |[M:4/4] E2 cB A2 G2 |[M:3/4] [CA]6 |] %18
V:2
 z4 z2 [A,,A,][A,,A,] | [A,,A,]2 [A,,A,]2 [A,,A,][A,,A,][A,,E,][A,,E,] | %2
 [A,,A,]2 [A,,A,]2 [A,,A,]2 [C,A,][E,G,E] | [A,E]3 [A,E] [A,DA][A,CA] [A,E]2 | %4
 [E,G,E]6 [A,,A,][A,,A,] | [A,,A,]2 [A,,A,]2 [A,,A,][A,,A,][A,,A,][A,,F,] | %6
 [A,,E,]2 [A,,E,]2 [A,,A,]2 [C,A,][D,A,] | [E,A,E]3 [E,A,C] [E,G,D][E,G,D] [E,G,D]2 | %8
 [A,,A,]6 [A,E][A,B,E] | [A,CE]2 [A,CE][A,E] [C,A,]2 [D,A,]2 | [A,,A,]6 [C,A,][E,G,E] | %11
 [A,E]2 [A,EA][A,EA] [G,EA]2[K:bass] [F,=D]2 |[M:3/4] [E,E]6 |[M:1/4][K:treble] [A,A][A,B,A] | %14
[M:4/4] [A,CA]2 [A,CA]2 [A,E]2 [A,CE][A,E_G] | %15
[M:9/8][K:bass] [D,D]2 [D,D]- [D,D] [D,D]2- [D,D][D,A,D][D,A,D] | %16
[M:4/4] [E,A,C]2 [E,A,E][E,DE] [E,CE]2 [E,B,D]2 |[M:3/4] [A,,A,]6 |] %18

